polaris-icons/icons/newicons/RemoveProductMajor.svg

<svg width="20" height="20" viewBox="0 0 20 20" fill="none" xmlns="http://www.w3.org/2000/svg">
<path d="M8.59099 4.09835C9.29425 3.39509 10.2481 3 11.2426 3H13.75C15.5449 3 17 4.45507 17 6.25V8.96447C17 9.82642 16.6576 10.6531 16.0481 11.2626L15.8741 11.4366C15.5812 11.7295 15.1063 11.7295 14.8134 11.4366C14.5205 11.1437 14.5205 10.6688 14.8134 10.3759L14.9874 10.2019C15.3156 9.87371 15.5 9.4286 15.5 8.96447V6.25C15.5 5.2835 14.7165 4.5 13.75 4.5H11.2426C10.6459 4.5 10.0736 4.73705 9.65165 5.15901L4.69455 10.1161C4.20639 10.6043 4.20639 11.3957 4.69455 11.8839L8.2929 15.4822C8.68342 15.8728 9.31659 15.8728 9.70711 15.4822L10.2822 14.9072C10.5751 14.6143 11.0499 14.6143 11.3428 14.9072C11.6357 15.2001 11.6357 15.6749 11.3428 15.9678L10.7678 16.5429C9.79146 17.5192 8.20855 17.5192 7.23224 16.5429L3.63389 12.9445C2.55994 11.8706 2.55994 10.1294 3.63389 9.05546L8.59099 4.09835Z" fill="black"/>
<path d="M14 7C14 7.55228 13.5523 8 13 8C12.4477 8 12 7.55228 12 7C12 6.44772 12.4477 6 13 6C13.5523 6 14 6.44772 14 7Z" fill="black"/>
<path d="M12.75 13C12.3358 13 12 13.3358 12 13.75C12 14.1642 12.3358 14.5 12.75 14.5H17.25C17.6642 14.5 18 14.1642 18 13.75C18 13.3358 17.6642 13 17.25 13H12.75Z" fill="black"/>
</svg>

<svg viewBox="0 0 20 20" fill="none" xmlns="http://www.w3.org/2000/svg"><path d="M8.591 4.098a3.75 3.75 0 0 1 2.652-1.098h2.507a3.25 3.25 0 0 1 3.25 3.25v2.714a3.25 3.25 0 0 1-.952 2.299l-.174.174a.75.75 0 0 1-1.06-1.061l.173-.174a1.75 1.75 0 0 0 .513-1.238v-2.714a1.75 1.75 0 0 0-1.75-1.75h-2.507a2.25 2.25 0 0 0-1.591.659l-4.957 4.957a1.25 1.25 0 0 0 0 1.768l3.598 3.598a1 1 0 0 0 1.414 0l.575-.575a.75.75 0 1 1 1.06 1.06l-.574.576a2.5 2.5 0 0 1-3.536 0l-3.598-3.598a2.75 2.75 0 0 1 0-3.89l4.957-4.957Z" fill="#5C5F62"/><path d="M14 7a1 1 0 1 1-2 0 1 1 0 0 1 2 0Z" fill="#5C5F62"/><path d="M12.75 13a.75.75 0 0 0 0 1.5h4.5a.75.75 0 0 0 0-1.5h-4.5Z" fill="#5C5F62"/></svg>
